;FLAVOR:Marlin
;TIME:2994
;Filament used: 1.60652m
;Layer height: 0.12
;MINX:18.141
;MINY:18.16
;MINZ:0.24
;MAXX:201.821
;MAXY:201.84
;MAXZ:20.04
;POSTPROCESSED
;Generated with Cura_SteamEngine 4.13.0
M140 S67
M105
M190 S67
M104 S215
M105
M109 S215
M82 ;absolute extrusion mode
; Ender 3 Custom Start G-code

M82 ;absolute extrusion mode
;M851 X-31.8 Y-40.50 Z-2.45

G28 ; Home
;G29 ; ABL
M420 S1

G92 E0 ;Reset Extruder
G1 Z2.0 F3000 ;Move Z Axis up
G1 X10.1 Y20 Z0.28 F5000.0 ;Move to start position
G1 X10.1 Y200.0 Z0.28 F1500.0 E15 ;Draw the first line
G1 X10.4 Y200.0 Z0.28 F5000.0 ;Move to side a little
G1 X10.4 Y20 Z0.28 F1500.0 E30 ;Draw the second line
G92 E0 ;Reset Extruder
G1 E-1 F2700 ;Retract a bit
G1 Z2.0 F3000 ;Move Z Axis up
G92 E0
G92 E0
G1 F2700 E-0.8
;LAYER_COUNT:166
;LAYER:0
M117 speed (10.0/10.0)
M107
G0 F2880 X18.487 Y18.664 Z0.24
;TYPE:SKIRT
G1 F2700 E0
G1 F1200 X18.736 Y18.434 E0.00814
G1 X19.031 Y18.269 E0.01626
G1 X19.358 Y18.177 E0.02441
G1 X19.581 Y18.16 E0.02978
G1 X40.381 Y18.16 E0.52921
G1 X40.717 Y18.2 E0.53734
G1 X41.035 Y18.317 E0.54547
G1 X41.317 Y18.506 E0.55363
G1 X41.547 Y18.755 E0.56176
G1 X41.712 Y19.05 E0.56988
G1 X41.804 Y19.377 E0.57804
G1 X41.821 Y19.6 E0.58341
G1 X41.821 Y40.4 E1.08284
G1 X41.781 Y40.736 E1.09096
G1 X41.664 Y41.054 E1.0991
G1 X41.475 Y41.336 E1.10725
G1 X41.226 Y41.566 E1.11539
G1 X40.931 Y41.731 E1.12351
G1 X40.604 Y41.823 E1.13166
G1 X40.381 Y41.84 E1.13703
G1 X19.581 Y41.84 E1.63646
G1 X19.245 Y41.8 E1.64459
G1 X18.927 Y41.683 E1.65273
G1 X18.645 Y41.494 E1.66088
G1 X18.415 Y41.245 E1.66902
G1 X18.25 Y40.95 E1.67713
G1 X18.158 Y40.623 E1.68529
G1 X18.141 Y40.4 E1.69066
G1 X18.141 Y19.6 E2.19009
G1 X18.181 Y19.264 E2.19821
G1 X18.264 Y19.041 E2.20393
G0 F1080 X18.298 Y18.946
G0 X18.487 Y18.664
G0 F2880 X18.803 Y18.795
G1 F1200 X19.043 Y18.618 E2.21109
G1 X19.322 Y18.51 E2.21827
G1 X19.581 Y18.48 E2.22453
G1 X40.381 Y18.48 E2.72396
G1 X40.677 Y18.52 E2.73114
G1 X40.952 Y18.636 E2.7383
G1 X41.186 Y18.822 E2.74548
G1 X41.363 Y19.062 E2.75264
G1 X41.471 Y19.341 E2.75982
G1 X41.501 Y19.6 E2.76608
G1 X41.501 Y40.4 E3.26552
G1 X41.461 Y40.696 E3.27269
G1 X41.345 Y40.971 E3.27986
G1 X41.159 Y41.205 E3.28703
G1 X40.919 Y41.382 E3.29419
G1 X40.64 Y41.49 E3.30138
G1 X40.381 Y41.52 E3.30764
G1 X19.581 Y41.52 E3.80707
G1 X19.285 Y41.48 E3.81424
G1 X19.01 Y41.364 E3.82141
G1 X18.776 Y41.178 E3.82858
G1 X18.599 Y40.938 E3.83575
G1 X18.491 Y40.659 E3.84293
G1 X18.461 Y40.4 E3.84919
G1 X18.461 Y19.6 E4.34862
G1 X18.501 Y19.304 E4.35579
G1 X18.562 Y19.16 E4.35955
G0 F1080 X18.617 Y19.029
G0 X18.803 Y18.795
G0 F2880 X18.936 Y19.127
G1 F1200 X19.115 Y18.949 E4.36561
G1 X19.341 Y18.837 E4.37167
G1 X19.581 Y18.8 E4.3775
G1 X40.381 Y18.8 E4.87693
G1 X40.63 Y18.84 E4.88298
G1 X40.854 Y18.955 E4.88903
G1 X41.032 Y19.134 E4.89509
G1 X41.144 Y19.36 E4.90115
G1 X41.181 Y19.6 E4.90698
G1 X41.181 Y40.4 E5.40641
G1 X41.141 Y40.649 E5.41247
G1 X41.026 Y40.873 E5.41851
G1 X40.847 Y41.051 E5.42457
G1 X40.621 Y41.163 E5.43063
G1 X40.381 Y41.2 E5.43646
G1 X19.581 Y41.2 E5.93589
G1 X19.332 Y41.16 E5.94195
G1 X19.108 Y41.045 E5.94799
G1 X18.93 Y40.866 E5.95405
G1 X18.818 Y40.64 E5.96011
G1 X18.781 Y40.4 E5.96594
G1 X18.781 Y19.6 E6.46537
G1 X18.791 Y19.537 E6.46691
G0 F1080 X18.821 Y19.351
G0 X18.936 Y19.127
G0 F2880 X19.253 Y19.25
G1 F1200 X19.419 Y19.148 E6.47158
G1 X19.581 Y19.12 E6.47553
G1 X40.381 Y19.12 E6.97496
G1 X40.572 Y19.16 E6.97965
G1 X40.731 Y19.272 E6.98432
G1 X40.833 Y19.438 E6.989
G1 X40.861 Y19.6 E6.99294
G1 X40.861 Y40.4 E7.49238
G1 X40.821 Y40.591 E7.49706
G1 X40.709 Y40.75 E7.50173
G1 X40.543 Y40.852 E7.50641
G1 X40.381 Y40.88 E7.51036
G1 X19.581 Y40.88 E8.00979
G1 X19.39 Y40.84 E8.01448
G1 X19.231 Y40.728 E8.01915
G1 X19.129 Y40.562 E8.02382
G1 X19.101 Y40.4 E8.02777
G1 X19.101 Y19.651 E8.52598
G0 F1080 X19.101 Y19.6
G0 X19.141 Y19.409
G0 X19.253 Y19.25
G0 F2880 X19.46 Y19.496
G1 F1200 X19.581 Y19.44 E8.52918
G1 X40.381 Y19.44 E9.02861
G1 X40.485 Y19.479 E9.03128
G1 X40.541 Y19.6 E9.03448
G1 X40.541 Y40.4 E9.53391
G1 X40.502 Y40.504 E9.53658
G1 X40.381 Y40.56 E9.53978
G1 X19.581 Y40.56 E10.03921
G1 X19.477 Y40.521 E10.04188
G1 X19.421 Y40.4 E10.04508
G1 X19.421 Y19.929 E10.53661
G0 F1080 X19.421 Y19.6
G0 X19.46 Y19.496
G1 F2700 E9.73661
G0 F2880 X19.316 Y19.496
G0 X40.634 Y19.347
G0 X98.523 Y84.137
G1 F2700 E10.53661
G1 F1200 X98.772 Y83.907 E10.54475
G1 X99.16 Y83.707 E10.55523
G1 X99.662 Y83.539 E10.56794
G1 X100.119 Y83.465 E10.57906
G1 X120.385 Y83.466 E11.06567
G1 X120.722 Y83.506 E11.07382
G1 X121.039 Y83.623 E11.08193
G1 X121.321 Y83.812 E11.09008
G1 X121.543 Y84.05 E11.0979
G1 X121.846 Y84.46 E11.11014
G1 X122.014 Y84.754 E11.11827
G1 X122.108 Y85.08 E11.12642
G1 X122.128 Y85.316 E11.1321
G1 X122.127 Y90.58 E11.2585
G1 X122.087 Y90.917 E11.26665
G1 X121.97 Y91.235 E11.27478
G1 X121.845 Y91.435 E11.28045
G1 X121.543 Y91.844 E11.29265
G1 X121.311 Y92.091 E11.30079
G1 X121.028 Y92.277 E11.30892
G1 X120.709 Y92.392 E11.31706
G1 X120.385 Y92.429 E11.32489
G1 X100.12 Y92.43 E11.81148
G1 X99.669 Y92.357 E11.82245
G1 X99.166 Y92.191 E11.83517
G1 X98.859 Y92.048 E11.8433
G1 X98.594 Y91.837 E11.85143
G1 X98.385 Y91.57 E11.85958
G1 X98.245 Y91.261 E11.86772
G1 X98.177 Y90.824 E11.87834
G1 X98.177 Y85.073 E12.01643
G1 X98.217 Y84.737 E12.02455
G1 X98.3 Y84.514 E12.03027
G0 F1080 X98.334 Y84.419
G0 X98.523 Y84.137
G0 F2880 X98.839 Y84.268
G1 F1200 X99.079 Y84.091 E12.03743
G1 X99.262 Y84.011 E12.04222
G1 X99.764 Y83.843 E12.05493
G1 X100.119 Y83.785 E12.06357
G1 X120.385 Y83.786 E12.55018
G1 X120.681 Y83.826 E12.55735
G1 X120.956 Y83.942 E12.56452
G1 X121.286 Y84.24 E12.57519
G1 X121.589 Y84.65 E12.58744
G1 X121.733 Y84.912 E12.59461
G1 X121.808 Y85.316 E12.60448
G1 X121.807 Y90.58 E12.73088
G1 X121.767 Y90.876 E12.73805
G1 X121.588 Y91.245 E12.74789
G1 X121.286 Y91.654 E12.7601
G1 X121.078 Y91.869 E12.76729
G1 X120.821 Y92.021 E12.77445
G1 X120.385 Y92.109 E12.78513
G1 X100.12 Y92.11 E13.27172
G1 X99.769 Y92.054 E13.28026
G1 X99.266 Y91.888 E13.29297
G1 X98.997 Y91.757 E13.30016
G1 X98.773 Y91.56 E13.30732
G1 X98.608 Y91.311 E13.31449
G1 X98.516 Y91.027 E13.32166
G1 X98.497 Y90.824 E13.32656
G1 X98.497 Y85.073 E13.46464
G1 X98.537 Y84.777 E13.47182
G1 X98.598 Y84.633 E13.47557
G0 F1080 X98.653 Y84.502
G0 X98.839 Y84.268
G0 F2880 X98.972 Y84.6
G1 F1200 X99.151 Y84.422 E13.48163
G1 X99.363 Y84.314 E13.48735
G1 X99.865 Y84.146 E13.50006
G1 X100.119 Y84.105 E13.50623
G1 X120.385 Y84.106 E13.99284
G1 X120.634 Y84.146 E13.9989
G1 X120.858 Y84.261 E14.00495
G1 X121.028 Y84.431 E14.01072
G1 X121.331 Y84.841 E14.02296
G1 X121.447 Y85.064 E14.02899
G1 X121.488 Y85.316 E14.03513
G1 X121.487 Y90.58 E14.16152
G1 X121.447 Y90.829 E14.16758
G1 X121.331 Y91.055 E14.17367
G1 X121.029 Y91.464 E14.18588
G1 X120.849 Y91.641 E14.19194
G1 X120.623 Y91.753 E14.198
G1 X120.385 Y91.789 E14.20378
G1 X100.12 Y91.79 E14.69037
G1 X99.869 Y91.75 E14.69647
G1 X99.366 Y91.584 E14.70919
G1 X99.142 Y91.468 E14.71524
G1 X98.965 Y91.288 E14.72131
G1 X98.853 Y91.062 E14.72736
G1 X98.817 Y90.824 E14.73314
G1 X98.817 Y85.073 E14.87123
G1 X98.827 Y85.01 E14.87276
G0 F1080 X98.857 Y84.824
G0 X98.972 Y84.6
G0 F2880 X99.289 Y84.723
G1 F1200 X99.465 Y84.618 E14.87768
G1 X99.967 Y84.45 E14.89039
G1 X100.119 Y84.425 E14.89409
G1 X120.385 Y84.426 E15.3807
G1 X120.576 Y84.466 E15.38539
G1 X120.771 Y84.621 E15.39137
G1 X121.074 Y85.031 E15.40361
G1 X121.168 Y85.316 E15.41082
G1 X121.167 Y90.58 E15.53721
G1 X121.073 Y90.865 E15.54442
G1 X120.771 Y91.274 E15.55662
G1 X120.626 Y91.404 E15.5613
G1 X120.385 Y91.469 E15.56729
G1 X100.12 Y91.47 E16.05388
G1 X99.97 Y91.446 E16.05753
G1 X99.467 Y91.28 E16.07025
G1 X99.298 Y91.182 E16.07494
G1 X99.182 Y91.026 E16.0796
G1 X99.137 Y90.824 E16.08457
G1 X99.137 Y85.124 E16.22144
G0 F1080 X99.137 Y85.073
G0 X99.177 Y84.882
G0 X99.289 Y84.723
G0 F2880 X99.496 Y84.969
G1 F1200 X99.566 Y84.921 E16.22347
G1 X100.068 Y84.753 E16.23619
G1 X100.119 Y84.745 E16.23742
G1 X120.385 Y84.746 E16.72403
G1 X120.514 Y84.811 E16.7275
G1 X120.817 Y85.221 E16.73974
G1 X120.848 Y85.316 E16.74214
G1 X120.847 Y90.58 E16.86854
G1 X120.816 Y90.675 E16.87094
G1 X120.514 Y91.084 E16.88315
G1 X120.385 Y91.149 E16.88661
G1 X100.12 Y91.15 E17.3732
G1 X100.07 Y91.142 E17.37442
G1 X99.567 Y90.976 E17.38713
G1 X99.48 Y90.906 E17.38982
G1 X99.457 Y90.824 E17.39186
G1 X99.457 Y85.402 E17.52205
G0 F1080 X99.457 Y85.073
G0 X99.496 Y84.969
G1 F2700 E16.72205
G0 F2880 X99.352 Y84.969
G0 X98.487 Y98.664
G1 F2700 E17.52205
G1 F1200 X98.736 Y98.434 E17.53019
G1 X99.031 Y98.269 E17.5383
G1 X99.358 Y98.177 E17.54646
G1 X99.581 Y98.16 E17.55183
G1 X120.381 Y98.16 E18.05126
G1 X120.717 Y98.2 E18.05939
G1 X121.035 Y98.317 E18.06752
G1 X121.317 Y98.506 E18.07567
G1 X121.547 Y98.755 E18.08381
G1 X121.712 Y99.05 E18.09193
G1 X121.804 Y99.377 E18.10009
G1 X121.821 Y99.6 E18.10546
G1 X121.821 Y120.4 E18.60489
G1 X121.781 Y120.736 E18.61301
G1 X121.664 Y121.054 E18.62115
G1 X121.475 Y121.336 E18.6293
G1 X121.226 Y121.566 E18.63744
G1 X120.931 Y121.731 E18.64556
G1 X120.604 Y121.823 E18.65371
G1 X120.381 Y121.84 E18.65908
G1 X99.581 Y121.84 E19.15851
G1 X99.245 Y121.8 E19.16664
G1 X98.927 Y121.683 E19.17477
G1 X98.645 Y121.494 E19.18293
G1 X98.415 Y121.245 E19.19106
G1 X98.25 Y120.95 E19.19918
G1 X98.158 Y120.623 E19.20734
G1 X98.141 Y120.4 E19.21271
G1 X98.141 Y99.6 E19.71214
G1 X98.181 Y99.264 E19.72026
G1 X98.264 Y99.041 E19.72598
G0 F1080 X98.298 Y98.946
G0 X98.487 Y98.664
G0 F2880 X98.803 Y98.795
G1 F1200 X99.043 Y98.618 E19.73314
G1 X99.322 Y98.51 E19.74032
G1 X99.581 Y98.48 E19.74658
G1 X120.381 Y98.48 E20.24601
G1 X120.677 Y98.52 E20.25319
G1 X120.952 Y98.636 E20.26035
G1 X121.186 Y98.822 E20.26753
G1 X121.363 Y99.062 E20.27469
G1 X121.471 Y99.341 E20.28187
G1 X121.501 Y99.6 E20.28813
G1 X121.501 Y120.4 E20.78757
G1 X121.461 Y120.696 E20.79474
G1 X121.345 Y120.971 E20.8019
G1 X121.159 Y121.205 E20.80908
G1 X120.919 Y121.382 E20.81624
G1 X120.64 Y121.49 E20.82343
G1 X120.381 Y121.52 E20.82969
G1 X99.581 Y121.52 E21.32912
G1 X99.285 Y121.48 E21.33629
G1 X99.01 Y121.364 E21.34346
G1 X98.776 Y121.178 E21.35063
G1 X98.599 Y120.938 E21.35779
G1 X98.491 Y120.659 E21.36498
G1 X98.461 Y120.4 E21.37124
G1 X98.461 Y99.6 E21.87067
G1 X98.501 Y99.304 E21.87784
G1 X98.562 Y99.16 E21.8816
G0 F1080 X98.617 Y99.029
G0 X98.803 Y98.795
G0 F2880 X98.936 Y99.127
G1 F1200 X99.115 Y98.949 E21.88766
G1 X99.341 Y98.837 E21.89371
G1 X99.581 Y98.8 E21.89955
G1 X120.381 Y98.8 E22.39898
G1 X120.63 Y98.84 E22.40503
G1 X120.854 Y98.955 E22.41108
G1 X121.032 Y99.134 E22.41714
G1 X121.144 Y99.36 E22.4232
G1 X121.181 Y99.6 E22.42903
G1 X121.181 Y120.4 E22.92846
G1 X121.141 Y120.649 E22.93451
G1 X121.026 Y120.873 E22.94056
G1 X120.847 Y121.051 E22.94662
G1 X120.621 Y121.163 E22.95268
G1 X120.381 Y121.2 E22.95851
G1 X99.581 Y121.2 E23.45794
G1 X99.332 Y121.16 E23.464
G1 X99.108 Y121.045 E23.47004
G1 X98.93 Y120.866 E23.4761
G1 X98.818 Y120.64 E23.48216
G1 X98.781 Y120.4 E23.48799
G1 X98.781 Y99.6 E23.98742
G1 X98.791 Y99.537 E23.98895
G0 F1080 X98.821 Y99.351
G0 X98.936 Y99.127
G0 F2880 X99.253 Y99.25
G1 F1200 X99.419 Y99.148 E23.99363
G1 X99.581 Y99.12 E23.99758
G1 X120.381 Y99.12 E24.49701
G1 X120.572 Y99.16 E24.5017
G1 X120.731 Y99.272 E24.50637
G1 X120.833 Y99.438 E24.51105
G1 X120.861 Y99.6 E24.51499
G1 X120.861 Y120.4 E25.01443
G1 X120.821 Y120.591 E25.01911
G1 X120.709 Y120.75 E25.02378
G1 X120.543 Y120.852 E25.02846
G1 X120.381 Y120.88 E25.03241
G1 X99.581 Y120.88 E25.53184
G1 X99.39 Y120.84 E25.53652
G1 X99.231 Y120.728 E25.54119
G1 X99.129 Y120.562 E25.54587
G1 X99.101 Y120.4 E25.54982
G1 X99.101 Y99.651 E26.04803
G0 F1080 X99.101 Y99.6
G0 X99.141 Y99.409
G0 X99.253 Y99.25
G0 F2880 X99.46 Y99.496
G1 F1200 X99.581 Y99.44 E26.05123
G1 X120.381 Y99.44 E26.55066
G1 X120.485 Y99.479 E26.55333
G1 X120.541 Y99.6 E26.55653
G1 X120.541 Y120.4 E27.05596
G1 X120.502 Y120.504 E27.05863
G1 X120.381 Y120.56 E27.06183
G1 X99.581 Y120.56 E27.56126
G1 X99.477 Y120.521 E27.56393
G1 X99.421 Y120.4 E27.56713
G1 X99.421 Y99.929 E28.05866
G0 F1080 X99.421 Y99.6
G0 X99.46 Y99.496
G1 F2700 E27.25866
G0 F2880 X99.46 Y99.335
G0 X129.266 Y96.982
G1 F2700 E28.05866
G1 F1200 X129.61 Y96.576 E28.07144
G1 X129.87 Y96.359 E28.07957
G1 X130.212 Y96.194 E28.08869
G1 X130.779 Y96.009 E28.10301
G1 X131.226 Y95.938 E28.11388
G1 X147.949 Y95.937 E28.51542
G1 X148.41 Y96.013 E28.52663
G1 X148.963 Y96.2 E28.54065
G1 X149.269 Y96.345 E28.54878
G1 X149.67 Y96.684 E28.56139
G1 X149.889 Y96.942 E28.56952
G1 X150.059 Y97.294 E28.5789
G1 X150.243 Y97.862 E28.59324
G1 X150.313 Y98.306 E28.60403
G1 X150.314 Y115.028 E29.00554
G1 X150.238 Y115.489 E29.01676
G1 X150.051 Y116.043 E29.0308
G1 X149.906 Y116.349 E29.03893
G1 X149.562 Y116.754 E29.05169
G1 X149.302 Y116.971 E29.05982
G1 X148.963 Y117.135 E29.06887
G1 X148.397 Y117.321 E29.08317
G1 X147.947 Y117.393 E29.09411
G1 X131.223 Y117.394 E29.49568
G1 X130.762 Y117.318 E29.5069
G1 X130.209 Y117.131 E29.52091
G1 X129.903 Y116.986 E29.52904
G1 X129.502 Y116.647 E29.54165
G1 X129.283 Y116.389 E29.54978
G1 X129.113 Y116.037 E29.55916
G1 X128.929 Y115.469 E29.5735
G1 X128.859 Y115.025 E29.58429
G1 X128.858 Y98.303 E29.98581
G1 X128.933 Y97.843 E29.997
G1 X129.088 Y97.383 E30.00865
G0 F1080 X129.12 Y97.288
G0 X129.266 Y96.982
G0 F2880 X129.669 Y96.981
G1 F1200 X130.075 Y96.607 E30.02191
G1 X130.312 Y96.498 E30.02817
G1 X130.879 Y96.313 E30.04249
G1 X131.226 Y96.258 E30.05093
G1 X147.949 Y96.257 E30.45246
G1 X148.308 Y96.316 E30.4612
G1 X148.861 Y96.503 E30.47522
G1 X149.265 Y96.744 E30.48651
G1 X149.642 Y97.149 E30.4998
G1 X149.754 Y97.393 E30.50624
G1 X149.938 Y97.961 E30.52058
G1 X149.993 Y98.306 E30.52897
G1 X149.994 Y115.028 E30.93048
G1 X149.935 Y115.386 E30.9392
G1 X149.748 Y115.94 E30.95324
G1 X149.503 Y116.349 E30.96468
G1 X149.097 Y116.723 E30.97794
G1 X148.863 Y116.831 E30.98413
G1 X148.297 Y117.017 E30.99843
G1 X147.947 Y117.073 E31.00694
G1 X131.223 Y117.074 E31.4085
G1 X130.864 Y117.015 E31.41724
G1 X130.311 Y116.828 E31.43126
G1 X129.907 Y116.587 E31.44255
G1 X129.53 Y116.182 E31.45584
G1 X129.418 Y115.938 E31.46228
G1 X129.234 Y115.37 E31.47662
G1 X129.179 Y115.025 E31.48501
G1 X129.178 Y98.303 E31.88652
G1 X129.237 Y97.945 E31.89524
G1 X129.424 Y97.39 E31.9093
G1 X129.443 Y97.359 E31.91017
G0 F1080 X129.669 Y96.981
G0 F2880 X129.902 Y97.2
G1 F1200 X130.276 Y96.861 E31.92229
G1 X130.411 Y96.802 E31.92583
G1 X130.978 Y96.617 E31.94015
G1 X131.226 Y96.578 E31.94618
G1 X147.949 Y96.577 E32.34772
G1 X148.205 Y96.619 E32.35394
G1 X148.758 Y96.806 E32.36796
G1 X149.047 Y96.978 E32.37604
G1 X149.389 Y97.351 E32.38819
G1 X149.45 Y97.491 E32.39185
G1 X149.634 Y98.059 E32.40619
G1 X149.673 Y98.306 E32.41219
G1 X149.674 Y115.028 E32.81371
G1 X149.632 Y115.284 E32.81994
G1 X149.445 Y115.838 E32.83398
G1 X149.27 Y116.13 E32.84215
G1 X148.896 Y116.469 E32.85427
G1 X148.763 Y116.527 E32.85776
G1 X148.197 Y116.713 E32.87206
G1 X147.947 Y116.753 E32.87814
G1 X131.223 Y116.754 E33.2797
G1 X130.967 Y116.712 E33.28593
G1 X130.414 Y116.525 E33.29995
G1 X130.125 Y116.353 E33.30802
G1 X129.783 Y115.98 E33.32018
G1 X129.722 Y115.84 E33.32384
G1 X129.538 Y115.272 E33.33818
G1 X129.499 Y115.025 E33.34418
G1 X129.498 Y98.303 E33.7457
G1 X129.54 Y98.048 E33.7519
G1 X129.696 Y97.586 E33.76361
G0 F1080 X129.727 Y97.493
G0 X129.902 Y97.2
G0 F2880 X130.03 Y97.595
G1 F1200 X130.309 Y97.234 E33.77457
G1 X130.51 Y97.107 E33.78027
G1 X131.077 Y96.922 E33.7946
G1 X131.226 Y96.898 E33.79822
G1 X147.949 Y96.897 E34.19976
G1 X148.103 Y96.922 E34.2035
G1 X148.656 Y97.109 E34.21752
G1 X149.016 Y97.387 E34.22844
G1 X149.146 Y97.59 E34.23423
G1 X149.33 Y98.158 E34.24857
G1 X149.353 Y98.306 E34.25216
G1 X149.354 Y115.028 E34.65368
G1 X149.329 Y115.182 E34.65742
G1 X149.142 Y115.736 E34.67146
G1 X148.863 Y116.096 E34.6824
G1 X148.663 Y116.223 E34.68809
G1 X148.097 Y116.409 E34.70239
G1 X147.947 Y116.433 E34.70604
G1 X131.223 Y116.434 E35.1076
G1 X131.069 Y116.409 E35.11135
G1 X130.516 Y116.222 E35.12537
G1 X130.156 Y115.944 E35.13629
G1 X130.026 Y115.741 E35.14208
